icons/attention.svg

<svg width="19" height="20" viewBox="0 0 19 20" fill="none" xmlns="http://www.w3.org/2000/svg">
<path d="M9.42857 0.714285C4.22321 0.714285 0 4.9375 0 10.1429C0 15.3482 4.22321 19.5714 9.42857 19.5714C14.6339 19.5714 18.8571 15.3482 18.8571 10.1429C18.8571 4.9375 14.6339 0.714285 9.42857 0.714285ZM11 16.0234C11 16.2444 10.8281 16.4286 10.6194 16.4286H8.26228C8.0413 16.4286 7.85714 16.2444 7.85714 16.0234V13.6908C7.85714 13.4699 8.0413 13.2857 8.26228 13.2857H10.6194C10.8281 13.2857 11 13.4699 11 13.6908V16.0234ZM10.9754 11.8002C10.9632 11.9721 10.779 12.1071 10.558 12.1071H8.28683C8.05357 12.1071 7.86942 11.9721 7.86942 11.8002L7.66071 4.17634C7.66071 4.0904 7.69755 4.00446 7.78348 3.95536C7.85714 3.89397 7.96763 3.85714 8.07813 3.85714H10.779C10.8895 3.85714 11 3.89397 11.0737 3.95536C11.1596 4.00446 11.1964 4.0904 11.1964 4.17634L10.9754 11.8002Z" fill="#FF455B"/>
</svg>

<svg width="19" height="20" fill="none" xmlns="http://www.w3.org/2000/svg"><path d="M9.429.714C4.223.714 0 4.937 0 10.143c0 5.205 4.223 9.428 9.429 9.428 5.205 0 9.428-4.223 9.428-9.428 0-5.206-4.223-9.429-9.428-9.429zM11 16.024c0 .22-.172.405-.38.405H8.261a.409.409 0 01-.405-.406v-2.332c0-.221.184-.405.405-.405h2.357c.21 0 .381.184.381.405v2.332zm-.025-4.224c-.012.172-.196.307-.417.307H8.287c-.233 0-.418-.135-.418-.307l-.208-7.624c0-.086.037-.172.122-.22a.473.473 0 01.295-.099h2.701c.11 0 .221.037.295.098.086.05.122.135.122.221l-.22 7.624z" fill="#FF455B"/></svg>
